X:117
T:Fox on the Town
Z: id:dc-reel-364
M:C
L:1/8
K:G Major
Bd|gedB edBA|G2BG DGBd|gedB edef|g3f efga|!
beed edBA|G2BG DGBd|efgb adfa|gbaf g2:|!
ga|beed Bdge|dBB2 dega|bee2 bege|efgb a2gf|!
g3e dedB|GBdg edBd|efgb adfa|gbaf g2:|!

